X:1
T:La fuencarraleda
T:La fuencarraleda
T:Anonymous
T:CANCION Con acompanaimiento de Piano forte y guitarra FOR F.B.T. 
T:El demonio è Don Jires Arreee! Miste que despacio và. Guegos traigo a veinti y tres: Mirar que se acaba ya. Dormilonas! No os hagais las remolonas. La Guevera! La Lechera! que se va. Leche y quesos he traido: Venid mi hacienda à comprar. 
T:Tambien traigo requeson La Lechera! Consuelo de las morenas, Y en el fondo del seron Pà las rubias cosa güena. Berenjenas! Que à los hombres quitan penas La Lechera! Que me voy a Foncarral: Leche y quesos he traido: Venid mi hacienda à comprar. 
T:by IMSLP - Public Domain
T:by IMSLP - Public Domain
T:by IMSLP - Public Domain
C:Anonymous
Z:by IMSLP - Public Domain
%%score ( 1 2 3 ) 4 { ( 5 7 ) | ( 6 8 ) }
L:1/8
Q:1/4=116
M:3/8
K:C
V:1 treble transpose=-12 nm="Guitarra" snm="\n"
V:2 treble transpose=-12 
V:3 treble transpose=-12 
V:4 treble nm="Voice"
V:5 treble nm="Piano"
V:7 treble 
V:6 bass 
V:8 bass 
V:1
"^Allegretto" z3 |S z cB | d c2 |{Ac} !>!e2 d | c/B/ A2- | Adc | Bc>A | GA>F | G/F/ E2- | EcB | %10
 d c2 |{Ac} !>!e2 a | a/g/ B2- | Bed | d2 c | ABA | !>!G!>!A!>!B | !>!c2 !>!B | %18
 [Ec]!p! (3G/c/e/ (3G/c/e/ |: z [Gce][Gce] | z (3G/c/e/ (3G/c/e/ | z [Gce][Gce] | %22
 z (3A/c/f/ (3A/c/f/ | z [Acf][Acf] | z (3^F/c/_e/ (3F/c/e/ | z [^Fc_e][Fce] | %26
 z (3G/B/d/ (3G/B/d/ | z [GBd][GBd] | z (3G/c/e/ (3G/c/e/ :| z [Gce][Gce] | z (3A/c/^f/ (3A/c/f/ | %31
 z [Ac^f][Acf] | z (3B/d/g/ (3B/d/g/ | z [Bdg][Bdg] | z (3A/c/^f/ (3A/c/f/ | z [Ac^f][Acf] | %36
 z (3B/d/g/ (3B/d/g/ | z [^Fc][Fc] | [GB]AB | c2 B | [Ec] (3G/c/e/ (3G/c/e/ | z [Gce][Gce] | %42
 z (3G/^A/e/ (3G/A/e/ | z [^GBf][GBf] | z (3G/B/f/ (3G/B/f/ | z [GBf][GBf] | z (3G/c/e/ (3G/c/e/ | %47
 z [Gce][Gce] | z (3G/^A/e/ (3G/A/e/ | z [G^Ae][GAe] | z (3G/B/f/ (3G/B/f/ | z [GBf][GBf] | %52
 [ce][cf][cg] | [ca][Dd][^Dc] | [EB][^GB][=G^c] | [Ad]2 [_EAc] | [D=GB] !fermata!z z | %57
 C/[ce]/C/[ce]/^G,/[Bd]/ | A,/[Ac]/A,/[Ac]/_A,/[^Fc_e]/ | G,/[GBd]/G,/[GBd]/G,/[GBd]/ | %60
 C/[ce]/C/[ce]/C/[ce]/ | C/[ce]/C/[ce]/^G,/[Bd]/ | A,/[Ac]/A,/[Ac]/_A,/[^Fc_e]/ | %63
 G,/[GBd]/G,/[GBd]/G,/[GBd]/ | C/[ce]/D/[cf]/E/[cg]/ | [ca] !>![GBf]2 | C/[ce]/D/[cf]/E/[cg]/ | %67
 [ca] !>![GBf]2 |1,2,3 [Gce][Gce][Gce] | [Gce] z z!D.C.! :|4S [Gce][Gce][Gce] | [Gce]2 z | %72
 [egc']2 z | [EGc]2 !fermata!z |] %74
V:2
 C[EG][EG] | C[EG][EG] | A,[EA][EA] | A,[EA][EA] | F,2 F | F,AA | [G,D]2 z | [G,D]2 z | C2 G, | %9
 C[EG][EG] | A,[EA][EA] | Ccc | [DBd]2 G | [EG]3 | [D^F]3 | [D^F]3 | [G,D][^F,D][=F,D] | EGF | %18
 C2 z |: C2 z | A,2 z | A,2 z | F,2 z | F,2 z | _A,2 z | G,2 z | G,2 z | F,2 z | C2 z :| C2 z | %30
 C2 z | D2 z | G,2 z | G,2 z | D2 z | D2 z | G,2 z | D2 z | [G,D][^F,D][=F,D] | EGF | C2 z | C2 z | %42
 ^C2 z | ^C2 z | D2 z | G,2 z | C2 z | C2 z | ^C2 z | ^C2 z | D2 z | G,2 z | CDE | FF,A, | G,FE | %55
 DF,^F, | =G, x2 | CC^G, | A,A,_A, | G,G,G, | CCC | CC^G, | A,A,_A, | G,G,G, | CDE | F G,2 | CDE | %67
 F G,2 |1,2,3 CG,E | C[EG][EG] :|4 CG,E | C2 z | C2 z | C2 z |] %74
V:3
 x3 | x3 | x3 | x3 | x3 | x3 | x3 | x3 | x3 | x3 | x3 | x3 | x3 | x3 | x3 | x3 | x3 | E,2 D | x3 |: %19
 x3 | x3 | x3 | x3 | x3 | x3 | x3 | x3 | x3 | x3 :| x3 | x3 | x3 | x3 | x3 | x3 | x3 | x3 | x3 | %38
 x3 | E,2 D | x3 | x3 | x3 | x3 | x3 | x3 | x3 | x3 | x3 | x3 | x3 | x3 | x3 | x3 | x3 | x3 | x3 | %57
 x3 | x3 | x3 | x3 | x3 | x3 | x3 | x3 | x3 | x3 | x3 |1,2,3 x3 | x3 :|4 x3 | x3 | x3 | x3 |] %74
V:4
 z3 | z3 | z3 | z3 | z3 | z3 | z3 | z3 | z3 | z3 | z3 | z3 | z3 | z3 | z3 | z3 | z3 | z3 | z3 |: %19
w: |||||||||||||||||||
"^Canto" z c B | d c2 | e2 d | %22
w: De Fon\-|car\- ral|he ve\-|
 c/B/A"_1\na\n.vez. \nL\na \nG\nuevera a a a a!\n2\na\n.vez. \nL\na \nL\nechera a a a a!\n" z | %23
w: ni\- do *|
 z3 | z3 | z c c | B D2 | A2 G | A G2 :| z c c | B A2 | z c c | B/A/ G z | z ^F G | A D z | z c c | %36
w: ||por ver|si ven\-|do mi ha\-|cien\- da|gue\- vos|fres\- cos|he tra\-|i- * do|ri\- cos|que\- sos|que me|
 B/A/ G z | z c c | B/A/ G2- | G3- |"^o gritando" G G G |{/B} A G2- | G3- | G G G |{/B} A G2 | %45
w: rien- * da!|que me|rien- * da!||* Par\- ro\-|quia\- nas!||* ab\- rid|pron\- to|
{/B} A G2 | e c2 |"_La Guevera" z3 |"_a a a a a!" z3 | z2 G | A2 G | G A B | c2 z | d2 c | %54
w: las ven\-|ta\- nas|||ve\-|nid mi ha\-|cien\- da a com\-|prar|ri\- cos|
 B/A/ ^G z | d2 c | B/A/ !fermata!=G G | e2 d | c2 c | d A B | G2 G | e2 d | c2 c | B G B | c2 z | %65
w: cue- * sos|he tra\-|i- * do ve\-|nid ve\-|nid mi ha\-|cien\- da a com\-|prar ve\-|nid ve\-|nid mi ha\-|cien\- da a com\-|prar.|
 z3 | z3 | z3 |1,2,3 z3 | z3 :|4 z3 | z3 | z3 | z3 |] %74
w: |||||||||
V:5
 z3 |!p! z [cc'][Bb] | [dd'] [cc']2 |{eac'} !>![ee']2 [dd'] | [cc']/b/ a2- | a[dd'][cc'] | %6
 [Bb][cc']>[Aa] | [Gg][Aa]>[Ff] | [Gg]/f/ e2- | e[Ac'][Gb] | [dd'] [cc']2 | %11
!8va(!{e'a'c''} !>![e'e'']2 [aa'] | [ba']/g'/!8va)! b2- | b[ee'][dd'] | [dd']2 [cc'] | %15
 [Aca][Bdb][Aca] | [GBg][Aca][Bdb] | c'2 b | c'!p! (3E/C/B,/ (3E/C/G,/ |: z [G,CE][G,CE] | %20
 z (3E/C/A,/ (3E/C/A,/ | z [G,CE][G,CE] | z (3F/C/A,/ (3F/C/A,/ | z [A,CF][A,CF] | %24
 z (3^F/_E/C/ (3F/E/C/ | z [C_E^F][CEF] | z (3=F/D/B,/ (3F/D/B,/ | z [B,DF][B,DF] | %28
 z (3F/C/G,/ (3F/C/G,/ :| z [A,CF][A,CF] | z (3^F/C/A,/ (3F/C/A,/ | z [A,C^F][A,CF] | %32
 z (3G/D/B,/ (3G/D/B,/ | z [B,DG][B,DG] | z (3^F/C/A,/ (3F/C/A,/ | z [A,C^F][A,CF] | %36
 z (3G/D/B,/ (3G/D/B,/ | z [Ac^f][Acf] | [GBg][Aca][Bdb] | a2 b | [ec'] (3E/C/G,/ (3E/C/G,/ | %41
 z [G,CE][G,CE] | z (3E/^A,/G,/ (3E/A,/G,/ | z [G,^A,E][G,A,E] | z (3F/B,/G,/ (3F/B,/G,/ | %45
 z [G,B,F][G,B,F] | z (3F/B,/G,/ (3F/B,/G,/ | z [A,CE][A,CE] | z (3E/^A,/G,/ (3E/A,/G,/ | %49
 z [G,^A,E][G,A,E] | z (3F/B,/G,/ (3F/B,/G,/ | z [G,B,F][G,B,F] |!<(! [CE][CF][CG]!<)! | %53
 [CA]([Dd][^Dc] | [EB])(!>![^GB][=GA^c] | [Ad]2) [Ac] | [D=GB] !fermata!z z | %57
 [ce]/c'/[ce]/c'/[Bd]/b/ | [Ac]/a/[Ac]/a/[c_e]/^f/ | [Bd]/g/[Bd]/g/[Bd]/g/ | %60
 [ce]/c'/[ce]/c'/[ce]/c'/ | [ce]/c'/[ce]/c'/[ce]/b/ | [Ac]/a/[Ac]/a/[c_e]/^f/ | %63
 [Bd]/g/[Bd]/g/[Bd]/g/ | [ce][cf][cg] | [ca] !>![Bdf]2 | [ce][cf][cg] | [cb] !>![dfgb]2 |1,2,3 %68
 [cegc'][cegc'][cegc'] | [cegc'] z z :|4 [cegc'][cegc'][cegc'] | [cegc']2 z | [egc'e']2 z | %73
 C2 !fermata!z |] %74
V:6
 [C,,C,][E,G,C][E,G,C] | C,[E,G,C][E,G,C] | A,,[E,A,C][E,A,C] | A,,[E,A,C][E,A,C] | %4
 F,,[F,A,C][F,A,C] | F,,[F,A,C][F,A,C] | G,,[D,F,B,][D,F,B,] | G,,[D,F,B,][D,F,B,] | %8
 C,[E,G,C][E,G,C] | C,[E,G,C][E,G,C] | A,,[E,A,C][E,A,C] | C,[E,A,C][E,A,C] | D,[G,B,][G,B,] | %13
 D,[G,B,][G,B,] | D,[^F,A,C][F,A,C] | D,[^F,A,C][F,A,C] | !>![G,,G,]!>![^F,,^F,]!>![=F,,=F,] | %17
 !>![E,,E,]2 [D,,D,] | [C,,C,]2 z |: [C,,C,]2 z | [A,,,A,,]2 z | [A,,,A,,]2 z | [F,,F,]2 z | %23
 [F,,F,]2 z | [_A,,_A,]2 z | [_A,,_A,]2 z | [G,,G,]2 z | [G,,B,]2 z | [C,,E,]2 z :| [C,,E,]2 z | %30
 [D,,D,]2 z | [D,,D,]2 z | [G,,G,]2 z | [G,,G,]2 z | [D,,D,]2 z | [D,,D,]2 z | [F,,G,]2 z | %37
 [D,,D,]2 z | [G,,G,][^D,,^F,][=D,,=F,] | [E,,E,]2 [D,,D,] | [C,,C,]2 z | [C,,C,]2 z | %42
 [^C,,^C,]2 z | [^C,,^C,]2 z | [D,,D,]2 z | [G,,,G,,]2 z | [C,,C,]2 z | [C,,C,]2 z | [C,,^C,]2 z | %49
 [^C,,^C,]2 z | [D,,D,]2 z | [G,,,G,,]2 z | [C,,C,][D,,D,][E,,E,] | [F,,F,]2 ([A,,A,] | %54
 [^G,,^G,])([F,,F,][E,,E,] | [D,,D,])[F,,F,][^F,,^F,] | [=G,,=G,] !fermata!z z | [C,C]2 [^G,,^G,] | %58
 [A,,A,]2 [_A,,_A,] | [G,,G,][G,,G,][G,,G,] | C,/E,/F,/G,/A,/B,/ | [C,C]2 [^G,,^G,] | %62
 [A,,A,]2 [_A,,_A,] | [G,,G,][G,,G,][G,,G,] | [C,,C,][D,,D,][E,,E,] | [F,,F,] [G,,G,]2 | %66
 [C,,C,][D,,D,][E,,E,] | [G,,F,] [G,,G,]2 |1,2,3 [C,,C,]G,,E,, | [C,,C,][E,G,C][E,G,C] :|4 %70
 [C,,C,]G,,E,, | C,,2 z | [C,E,G,C]2 z | [E,G,]2 !fermata!z |] %74
V:7
 x3 | x3 | x3 | x3 | x3 | x3 | x3 | x3 | x3 | x3 | x3 |!8va(! x3 | x!8va)! x2 | x3 | x3 | x3 | x3 | %17
 [ce]gf | e x2 |: x3 | x3 | x3 | x3 | x3 | x3 | x3 | x3 | x3 | x3 :| x3 | x3 | x3 | x3 | x3 | x3 | %35
 x3 | x3 | x3 | x3 | [ce]gf | x3 | x3 | x3 | x3 | x3 | x3 | x3 | x3 | x3 | x3 | x3 | x3 | x3 | x3 | %54
 x3 | F2 _E | x3 | x3 | x3 | x3 | x3 | x3 | x3 | x3 | x3 | x3 | x3 | x3 |1,2,3 x3 | x3 :|4 x3 | %71
 x3 | x3 | x3 |] %74
V:8
 x3 | x3 | x3 | x3 | x3 | x3 | x3 | x3 | x3 | x3 | x3 | x3 | x3 | x3 | x3 | x3 | x3 | x3 | x3 |: %19
 x3 | x3 | x3 | x3 | x3 | x3 | x3 | x3 | x3 | x3 :| x3 | x3 | x3 | x3 | x3 | x3 | x3 | x3 | x3 | %38
 x3 | x3 | x3 | x3 | x3 | x3 | x3 | x3 | x3 | x3 | x3 | x3 | x3 | x3 | x3 | x3 | x3 | x3 | x3 | %57
 x3 | x3 | x3 | x3 | x3 | x3 | x3 | x3 | x3 | x3 | x3 |1,2,3 x3 | x3 :|4 x3 | x3 | x3 | %73
 [C,,C,]2 z |] %74

